source/frontend/assets/images/icon/twitter.svg

<svg width="32" height="32" viewBox="0 0 32 32" fill="none" xmlns="http://www.w3.org/2000/svg">
<path d="M29 8.47059C28.043 8.90294 27.0115 9.18706 25.9426 9.32294C27.0363 8.66824 27.8815 7.63059 28.2792 6.38294C27.2476 7.00059 26.1042 7.43294 24.8987 7.68C23.9168 6.61765 22.5373 6 20.9713 6C18.0507 6 15.6644 8.37176 15.6644 11.2994C15.6644 11.7194 15.7141 12.1271 15.8011 12.51C11.3767 12.2876 7.4369 10.1753 4.81453 6.97588C4.35468 7.75412 4.09369 8.66824 4.09369 9.63176C4.09369 11.4724 5.02581 13.1029 6.4675 14.0294C5.58509 14.0294 4.76482 13.7824 4.04398 13.4118V13.4488C4.04398 16.0182 5.88337 18.1676 8.31931 18.6494C7.53723 18.8621 6.71618 18.8917 5.92065 18.7359C6.25821 19.7889 6.91931 20.7104 7.81102 21.3707C8.70272 22.031 9.78019 22.3969 10.892 22.4171C9.00738 23.9 6.67132 24.7015 4.26769 24.69C3.84512 24.69 3.42256 24.6653 3 24.6159C5.36138 26.1229 8.17017 27 11.1778 27C20.9713 27 26.3528 18.9212 26.3528 11.9171C26.3528 11.6824 26.3528 11.46 26.3403 11.2253C27.3843 10.4841 28.2792 9.54529 29 8.47059Z" fill="#77889A"/>
</svg>

<svg xmlns="http://www.w3.org/2000/svg" width="32" height="32" viewBox="0 0 32 32">
  <path d="M29 8.47c-.957.433-1.988.717-3.057.853a5.316 5.316 0 0 0 2.336-2.94A10.78 10.78 0 0 1 24.9 7.68C23.917 6.618 22.537 6 20.97 6c-2.92 0-5.307 2.372-5.307 5.3 0 .42.05.827.137 1.21A15.186 15.186 0 0 1 4.815 6.976a5.219 5.219 0 0 0-.721 2.656c0 1.84.932 3.47 2.373 4.397-.882 0-1.702-.247-2.423-.617v.037a5.31 5.31 0 0 0 4.275 5.2 5.277 5.277 0 0 1-2.398.087 5.288 5.288 0 0 0 1.89 2.635 5.34 5.34 0 0 0 3.081 1.046 10.631 10.631 0 0 1-6.624 2.273c-.423 0-.845-.025-1.268-.074A15.16 15.16 0 0 0 11.178 27c9.793 0 15.175-8.079 15.175-15.083 0-.235 0-.457-.013-.692A10.617 10.617 0 0 0 29 8.471Z"/>
</svg>
